X:1
T:Oh Susanna
T:Oh! Susanna
T:In D major for piano
T:Stephen Foster
C:by Stephen Foster
%%score { 1 | 2 }
L:1/8
M:4/4
K:D
V:1 treble nm="Piano" snm="Pno."
V:2 bass 
V:1
 z6"^I Dmaj" !1!DE | F2 A2 !5!A3 !5!B | A2 F2 D3 E | F2 F2 E2 D2 |"^V A7 First Inversion\n" E6 DE | %5
w: Oh, I|come from A- la-|ba- ma with a|ban- jo on my|knee! I am|
w: It *|rained all night the|day I left, the|wea- ther it was|dry. * The|
"^I Dmaj" F2 A2 A3 B | A2 F2 D3 E |"^V A7 \nFirst Inversion" !3!F2 F2 !2!E2 E2 |"^I Dmaj" D8 | %9
w: goin' to Loui- si-|a na, my... *|true love for to|see.|
w: sun so hot I|froze to death, Su-|sa- nnah don't you|cry.|
"^IV Gmaj" !3!G4 G4 | !5!B2 B4 B2 |"^I Dmaj First Inversion" A2 A2 F2 z2 | %12
w: Oh Su-|sa- nna! Oh|don't you cry|
w: |||
"^V A7 First Inversion" E6 DE |"^I Dmaj" F2 A2 A3 B | A2 F2 D3 E | %15
w: me! For I|come from A- la-|ba- ma with a|
w: |||
"^V A7 \nFirst Inversion" F2 F2 E2 E2 |"^I Dmaj" D8 |] %17
w: ban- jo on my|knee.|
w: ||
V:2
 z8 | D,2 z2 [F,A,]2 z2 | D,2 z2 [F,A,]2 z2 | D,2 z2 [F,A,]2 z2 | C,2 [G,A,]2 [G,A,]2 z2 | %5
 D,2 z2 [F,A,]2 z2 | D,2 z2 [F,A,]2 z2 | !1!D,2 [F,A,]2 !1!C,2 [G,A,]2 | D,2 [F,A,]2 [F,A,]2 z2 | %9
 !5!!3![G,B,]4 [G,B,]4 | !5!!1![G,D]2 [G,D]4 [G,D]2 | !5!!1![F,D]6 D2 | %12
 z2 !2!!1![G,A,]2 [G,A,]2 z2 | D,2 z2 [F,A,]2 z2 | D,2 z2 [F,A,]2 z2 | D,2 [F,A,]2 C,2 [G,A,]2 | %16
 D,2 [F,A,]2 [F,A,]2 z2 |] %17

